X: 31035
T: Paddy Carey
R: jig
M: 6/8
K: Gmajor
|:E|D2 G GFG|B2 G GFG|E2 A A2 B|cAG FED|
D2 G GFG|B2 G G3|E2 D E2 F|GAB A2:|
|:D|G2 B c2 e|d2 e dBG|G2 B c2 e|dBG A2 D|
G2 B c2 e|d2 e dBG|G3 BAG|FEF G2:|
|:B|c2 A AGA|B2 G GFG|F2 G A2 B|c2 A FED|
c2 A AGA|B2 G GFG|E2 D E2 F|GAB A2:|

